private/icons/dark/system-log-out.svg

<svg viewBox="0 0 32 32" xmlns="http://www.w3.org/2000/svg"><path d="m13.7 24.8v1.1c0 .1-.1.2-.2.3a.37.37 0 0 1 -.3.1h-5.2a4.53 4.53 0 0 1 -3.3-1.4 4.53 4.53 0 0 1 -1.4-3.3v-11.3a4.53 4.53 0 0 1 1.4-3.3 4.53 4.53 0 0 1 3.3-1.4h5.2a.76.76 0 0 1 .4.2.52.52 0 0 1 .2.4v1.1c0 .1-.1.2-.2.3a.37.37 0 0 1 -.3.1h-5.3a3 3 0 0 0 -1.8.8 2.5 2.5 0 0 0 -.8 1.8v11.3a2.5 2.5 0 0 0 .8 1.8 2.17 2.17 0 0 0 1.8.8h5.4l.1.1a.1.1 0 0 1 .1.1.76.76 0 0 1 .1.4zm14.9-8.8a.91.91 0 0 1 -.3.7l-8.8 8.8a1 1 0 0 1 -1.7-.7v-4.6h-7.2a1 1 0 0 1 -1-1v-6.2a1 1 0 0 1 1-1h7.2v-4.8a1 1 0 0 1 1.7-.7l8.8 8.8a.91.91 0 0 1 .3.7z" fill="#aa3535"/></svg>

<svg id="Layer_1" data-name="Layer 1" xmlns="http://www.w3.org/2000/svg" viewBox="0 0 32 32"><defs><style>.cls-1{fill:#aa3535;}</style></defs><path class="cls-1" d="M13.7,24.8v1.1c0,.1-.1.2-.2.3a.37.37,0,0,1-.3.1H8a4.53,4.53,0,0,1-3.3-1.4,4.53,4.53,0,0,1-1.4-3.3V10.3A4.53,4.53,0,0,1,4.7,7,4.53,4.53,0,0,1,8,5.6h5.2a.76.76,0,0,1,.4.2.52.52,0,0,1,.2.4V7.3c0,.1-.1.2-.2.3a.37.37,0,0,1-.3.1H8a3,3,0,0,0-1.8.8,2.5,2.5,0,0,0-.8,1.8V21.6a2.5,2.5,0,0,0,.8,1.8,2.17,2.17,0,0,0,1.8.8h5.4l.1.1a.1.1,0,0,1,.1.1A.76.76,0,0,1,13.7,24.8ZM28.6,16a.91.91,0,0,1-.3.7l-8.8,8.8a1,1,0,0,1-1.7-.7V20.2H10.6a1,1,0,0,1-1-1V13a1,1,0,0,1,1-1h7.2V7.2a1,1,0,0,1,1.7-.7l8.8,8.8A.91.91,0,0,1,28.6,16Z"/></svg>
